X: 3103
T: Beara Minstrel, The
R: reel
M: 4/4
K: Dmajor
|:dcAG FD (3EFG|AAde fded|dcAG FD (3EFG|AB=cB A2de|dcAG FD (3EFG|ABAG Adde|~f3d eA (3Bcd|eage d3e:|
|:fdde fd (3efg|abaf gfeg|fddf efge|fede dcAg|fdde fd (3efg|abaf gfeg|~f3d eA (3Bcd|eage d3e:|

